packages/web-icons/svgs/arrow_7_left.svg

<svg viewBox="0 0 48 48" xmlns="http://www.w3.org/2000/svg" class="ridi_icon"><path d="M28.6 30.4l-6.2-6.2 6.1-6.1c1.1-1.1 1.1-2.9 0-4s-2.9-1.1-4 0l-7.8 7.8-.3.3c-.4.4-.6.8-.8 1.3-.3 1-.1 2.1.7 2.8.1.1.3.3.5.4l7.7 7.7c1.1 1.1 2.9 1.1 4 0 1.2-1.1 1.2-2.9.1-4zM48 24C48 10.7 37.3 0 24 0S0 10.7 0 24s10.7 24 24 24 24-10.7 24-24zM6 24C6 14 14 6 24 6s18 8 18 18-8 18-18 18S6 34 6 24z"/></svg>

<?xml version="1.0" encoding="UTF-8"?>
<svg width="48px" height="48px" viewBox="0 0 48 48" version="1.1" xmlns="http://www.w3.org/2000/svg">
  <!-- Generator: Sketch 41.2 (35397) - http://www.bohemiancoding.com/sketch -->
  <title>arrow_7_left</title>
  <desc>Created with Sketch.</desc>
  <defs></defs>
  <g id="Page-1" stroke="none" stroke-width="1" fill="none" fill-rule="evenodd">
    <g id="arrow_7_left" fill="#000000">
      <g id="레이어_1">
        <path d="M28.6,30.4 L22.4,24.2 L28.5,18.1 C29.6,17 29.6,15.2 28.5,14.1 C27.4,13 25.6,13 24.5,14.1 L16.7,21.9 C16.6,22 16.5,22.1 16.4,22.2 C16,22.6 15.8,23 15.6,23.5 C15.3,24.5 15.5,25.6 16.3,26.3 C16.4,26.4 16.6,26.6 16.8,26.7 L24.5,34.4 C25.6,35.5 27.4,35.5 28.5,34.4 C29.7,33.3 29.7,31.5 28.6,30.4 L28.6,30.4 Z M48,24 C48,10.7 37.3,0 24,0 C10.7,0 0,10.7 0,24 C0,37.3 10.7,48 24,48 C37.3,48 48,37.3 48,24 Z M6,24 C6,14 14,6 24,6 C34,6 42,14 42,24 C42,34 34,42 24,42 C14,42 6,34 6,24 Z" id="Shape"></path>
      </g>
    </g>
  </g>
</svg>
